X: 19
M: C|
L: 1/8
K: Eb
e2e>g f2f>a | g2g>b (e2d2) | e2e>g c2c>e | Bedf (f2e2) :|
|: .B.e(d>f) .B.d(e>g) | .B.e(d>f) .B.d(e>g) | fedc B2B2 | cBAG F2F2 |




